!!!SOCIAL_FUNCTION:	social gatherings
!!!PDT:	1939
!!!OTL: No_97_"Stop_Singing".krn
!!!LANG: Non-Tone
!!!LING_GROUP: Wakashan
!!!REG: Pacific Northwest
**kern
*staff1
=1-
*clefF4
*k[f#c#g#]
*M2/4
4r
8r
8e\
=2
4.e\
8f#\
=3
16f#\LK
[8.e\J
8.e\L]
16c#\Jk
=4
8f#\L
16.e\L
32c#\JJk
16f#\LK
8.e\J
=5
16e\LL
16c#\J
[8c#\J
8.c#\L]
16e\Jk
=6
4.e\
8c#\
=7
8f#\L
16e\L
[16c#\JJ
8.c#\L]
32B\Jkk
32r
=8
8c#\L
16c#\L
16B\JJ
16e\LK
8.c#\J
=9
16c#\LK
8.B\J
16B\LL
16A\
16F#\JJ
32r
32c#\
=10
4.c#\
8c#\
=11
12B\L
12A\
12G#\J
16A\LK
8G#\
16F#\Jk
=12
8G#\L
8G#\J
16G#\LK
8.F#\J
=13
2E\
=14
2E\
==
*-
